src/assets/selectIcons/armatura_3.svg

<svg xmlns="http://www.w3.org/2000/svg" viewBox="0 0 512 512"><path d="M0 0h512v512H0z"/><path fill="#fff" d="M123.153 24.602c-11.349.764-48.792 83.005-63.545 132.174-8.046 26.818 2.983 74.734 41.723 106.45 8.813-1.502 16.946-3.047 24.434-4.626-22.473-24.22-39.048-50.488-47.772-82.059l-1.021-3.699 1.963-3.299c26.135-43.925 37.681-68.548 50.85-112.24l3.849-12.773 10.402 8.351c14.624 11.743 23.72 18.084 32.098 21.809-14.428-22.99-31.841-41.36-52.46-50.06a2.164 2.164 0 0 0-.52-.028zm19.791 50.203c-11.724 36.176-24.141 62.49-46.508 100.379 9.004 29.978 25.746 54.616 49.733 78.65 18.744-4.857 32.588-9.929 43.383-14.978 16.875-7.894 26.514-15.73 36.92-23.701-6.532-34.91-18.944-80.14-38.018-118.375-14.754-2.769-27.196-8.373-45.51-21.975zm90.094 158.008c-9.156 7.022-19.796 14.833-35.861 22.347-17.365 8.123-40.947 15.887-76.29 22.793 35.349 28.759 64.905 62.213 112.643 82.157 2.79-15.613 10.509-29.532 20.61-39.782 9.547-9.688 21.609-16.383 34.252-16.82 2.202-5.202 5.378-10.557 10.593-14.93 6.41-5.374 15.626-8.323 26.932-8.156a35.046 35.046 0 0 1 4.807-5.424c-7.384-1.603-16.19-3.168-27.145-5.586zm120.275 50.299c-.04.009-.084.012-.125.021-11.264 3.729-12.514 6.776-16.947 16.078-8.484-1.005-19.247-2.081-25.69 3.16-6.017 6.313-7.279 12.696-9.685 20.715-14.012-3.276-25.77 1.842-33.904 9.877-8.032 8.15-14.35 20.016-16.082 32.65 5.926 2.628 12.109 4.214 18.139 5.727 12.69-15.498 32.27-33.513 50.66-36.851 12.995-13.444 28.669-18.08 41.183-19.891a60.105 60.105 0 0 1 11.764-8.4c-6.632-11.786-12.405-18.622-19.313-23.086zm-232.011 18.882c-1.967 12.934-7.997 24.573-.64 46.305 32.36 70.655 41.042 23.73 93.735 22.953-38.944-18.938-66.126-45.737-93.095-69.258zm267.765 17.102c-4.87.972-9.343 3.536-13.062 6.28 9.197 12.249 16.987 27.313 23.28 43.81 7.916-2.052 14.75-4.612 21.103-7.506-6.473-26.762-18.951-37.976-31.32-42.584zm-29.935 13.906c-7.676 1.509-15.588 4.36-22.774 10.35 8.367 8.844 20.976 24.773 26.053 43.283 7.632-1.268 15.91-3.698 21.006-8.576-6.608-17.858-15.058-33.73-24.285-45.057zm-38.139 19.668c-14.313 5.357-25.257 14.981-34.674 25.938l19.383 26.324c13.696-1.49 26.639-6.254 39.39-13.299-4.69-15.098-18.62-32.912-24.447-38.607zm108.848 24.365c-6.679 3.099-13.973 5.985-22.237 8.375 6.323 10.32 11.618 21.138 15.602 32.543 7.703-3.07 14.902-6.372 21.264-10.082-3.964-11.28-8.68-22.055-14.63-30.836zM164.687 408.39l49.638 43.377c11.274-13.516 27.044-23.94 42.492-33.942l-22.02-25.32c-24.334-8.01-52.756 2.355-70.11 15.885zM391.9 394.153c-6.866 5.056-14.143 7.727-21.795 9.377 5.371 9.31 10.375 19.502 14.354 29.755 7.946-2.139 15.451-4.432 22.344-7.775-3.648-10.897-8.68-21.303-14.903-31.357zm-39.88 14.105c-11.759 6.313-24.191 11.162-37.42 13.545l13.316 27.447c14.663-2.177 28.099-3.684 39.666-9.746-4.195-10.706-9.777-21.706-15.563-31.246zm98.017 17.156c-6.627 3.604-13.647 6.703-20.846 9.534 2.83 7.167 5.28 14.119 7.21 20.757 10.397-1.435 20.263-5.912 18.179-13.869-1.423-5.296-2.923-10.83-4.543-16.422zM268.82 431.54c-16.062 10.564-31.09 20.975-40.728 32.256l1.392 1.217c16.648 14.548 36.256 20.475 44.95 9.13 8.522-11.12 10.536-24.116-5.614-42.603zm144.01 10.957c-7.166 3.334-14.4 5.634-21.465 7.58 3.051 6.991 5.842 13.849 8.244 20.48 9.2-.457 17.732-4.025 19.33-10.442-1.622-5.49-3.688-11.409-6.109-17.618zm-38.437 13.69c-12.724 6.396-25.866 8.467-38.184 10.154l6 12.367c10.038 10.705 32.656 11.336 42.21 2.944-2.654-7.907-6.1-16.516-10.026-25.465z"/></svg>

<?xml version="1.0" encoding="UTF-8" standalone="no"?>
<!DOCTYPE svg PUBLIC "-//W3C//DTD SVG 1.1//EN" "http://www.w3.org/Graphics/SVG/1.1/DTD/svg11.dtd">
<svg width="100%" height="100%" viewBox="0 0 512 512" version="1.1" xmlns="http://www.w3.org/2000/svg" xmlns:xlink="http://www.w3.org/1999/xlink" xml:space="preserve" xmlns:serif="http://www.serif.com/" style="fill-rule:evenodd;clip-rule:evenodd;stroke-linejoin:round;stroke-miterlimit:2;">
    <rect x="0" y="0" width="512" height="512" style="fill-rule:nonzero;"/>
    <path d="M123.153,24.602C111.804,25.366 74.361,107.607 59.608,156.776C51.562,183.594 62.591,231.51 101.331,263.226C110.144,261.724 118.277,260.179 125.765,258.6C103.292,234.38 86.717,208.112 77.993,176.541L76.972,172.842L78.935,169.543C105.07,125.618 116.616,100.995 129.785,57.303L133.634,44.53L144.036,52.881C158.66,64.624 167.756,70.965 176.134,74.69C161.706,51.7 144.293,33.33 123.674,24.63C123.502,24.6 123.328,24.59 123.154,24.602L123.153,24.602ZM142.944,74.805C131.22,110.981 118.803,137.295 96.436,175.184C105.44,205.162 122.182,229.8 146.169,253.834C164.913,248.977 178.757,243.905 189.552,238.856C206.427,230.962 216.066,223.126 226.472,215.155C219.94,180.245 207.528,135.015 188.454,96.78C173.7,94.011 161.258,88.407 142.944,74.805ZM233.038,232.813C223.882,239.835 213.242,247.646 197.177,255.16C179.812,263.283 156.23,271.047 120.887,277.953C156.236,306.712 185.792,340.166 233.53,360.11C236.32,344.497 244.039,330.578 254.14,320.328C263.687,310.64 275.749,303.945 288.392,303.508C290.594,298.306 293.77,292.951 298.985,288.578C305.395,283.204 314.611,280.255 325.917,280.422C327.328,278.453 328.939,276.635 330.724,274.998C323.34,273.395 314.534,271.83 303.579,269.412L233.038,232.813ZM353.313,283.112C353.273,283.121 353.229,283.124 353.188,283.133C341.924,286.862 340.674,289.909 336.241,299.211C327.757,298.206 316.994,297.13 310.551,302.371C304.534,308.684 303.272,315.067 300.866,323.086C286.854,319.81 275.096,324.928 266.962,332.963C258.93,341.113 252.612,352.979 250.88,365.613C256.806,368.241 262.989,369.827 269.019,371.34C281.709,355.842 301.289,337.827 319.679,334.489C332.674,321.045 348.348,316.409 360.862,314.598C364.431,311.335 368.381,308.515 372.626,306.198C365.994,294.412 360.221,287.576 353.313,283.112ZM121.302,301.994C119.335,314.928 113.305,326.567 120.662,348.299C153.022,418.954 161.704,372.029 214.397,371.252C175.453,352.314 148.271,325.515 121.302,301.994ZM389.067,319.096C384.197,320.068 379.724,322.632 376.005,325.376C385.202,337.625 392.992,352.689 399.285,369.186C407.201,367.134 414.035,364.574 420.388,361.68C413.915,334.918 401.437,323.704 389.068,319.096L389.067,319.096ZM359.132,333.002C351.456,334.511 343.544,337.362 336.358,343.352C344.725,352.196 357.334,368.125 362.411,386.635C370.043,385.367 378.321,382.937 383.417,378.059C376.809,360.201 368.359,344.329 359.132,333.002ZM320.993,352.67C306.68,358.027 295.736,367.651 286.319,378.608L305.702,404.932C319.398,403.442 332.341,398.678 345.092,391.633C340.402,376.535 326.472,358.721 320.645,353.026L320.993,352.67ZM429.841,377.035C423.162,380.134 415.868,383.02 407.604,385.41C413.927,395.73 419.222,406.548 423.206,417.953C430.909,414.883 438.108,411.581 444.47,407.871C440.506,396.591 435.79,385.816 429.84,377.035L429.841,377.035ZM164.687,408.39L214.325,451.767C225.599,438.251 241.369,427.827 256.817,417.825L234.797,392.505C210.463,384.495 182.041,394.86 164.687,408.39ZM391.9,394.153C385.034,399.209 377.757,401.88 370.105,403.53C375.476,412.84 380.48,423.032 384.459,433.285C392.405,431.146 399.91,428.853 406.803,425.51C403.155,414.613 398.123,404.207 391.9,394.153ZM352.02,408.258C340.261,414.571 327.829,419.42 314.6,421.803L327.916,449.25C342.579,447.073 356.015,445.566 367.582,439.504C363.387,428.798 357.805,417.798 352.019,408.258L352.02,408.258ZM450.037,425.414C443.41,429.018 436.39,432.117 429.191,434.948C432.021,442.115 434.471,449.067 436.401,455.705C446.798,454.27 456.664,449.793 454.58,441.836C453.157,436.54 451.657,431.006 450.037,425.414ZM268.82,431.54C252.758,442.104 237.73,452.515 228.092,463.796L229.484,465.013C246.132,479.561 265.74,485.488 274.434,474.143C282.956,463.023 284.97,450.027 268.82,431.54ZM412.83,442.497C405.664,445.831 398.43,448.131 391.365,450.077C394.416,457.068 397.207,463.926 399.609,470.557C408.809,470.1 417.341,466.532 418.939,460.115C417.317,454.625 415.251,448.706 412.83,442.497ZM374.393,456.187C361.669,462.583 348.527,464.654 336.209,466.341L342.209,478.708C352.247,489.413 374.865,490.044 384.419,481.652C381.765,473.745 378.319,465.136 374.393,456.187Z" style="fill:rgb(209,197,197);fill-rule:nonzero;"/>
</svg>
